dist/img/icons/customers/airplane.svg

<svg width="36" height="36" viewBox="0 0 36 36" fill="none" xmlns="http://www.w3.org/2000/svg">
<g clip-path="url(#clip0)">
<path d="M20.2551 18.6165H20.2188C20.1686 18.6694 20.092 18.6937 19.9911 18.6937L14.6881 23.6599L14.5387 30.7312L12.9204 32.3506C12.8703 32.4013 12.7711 32.4239 12.6184 32.4239C12.4194 32.4239 12.2739 32.3638 12.1873 32.2365C12.0997 32.1119 12.0303 31.9724 11.9817 31.8242L11.0017 27.9124C10.9775 27.7856 10.9141 27.6985 10.8138 27.6483C10.7118 27.5976 10.6258 27.5739 10.5509 27.5739C10.3001 27.5739 10.0978 27.6654 9.9484 27.8567C9.79903 28.043 9.65847 28.199 9.5339 28.3235C9.10948 28.6769 8.58255 28.8505 7.95253 28.8505C7.37764 28.8505 7.08771 28.576 7.08771 28.0231C7.08771 27.7476 7.13181 27.4725 7.22055 27.1958C7.30929 26.9213 7.44047 26.6826 7.61575 26.4815L8.25569 25.7671C8.25569 25.7407 8.26837 25.717 8.29152 25.6905C8.31852 25.6663 8.33175 25.6398 8.33175 25.6133C8.40616 25.5378 8.44364 25.4629 8.44364 25.3873C8.44364 25.2892 8.39238 25.1933 8.29152 25.1057C8.1934 25.0203 8.09254 24.9646 7.99277 24.9365L3.96852 23.9565C3.69182 23.8578 3.55347 23.6445 3.55347 23.3176V23.2801C3.55347 23.2548 3.5678 23.1947 3.59095 23.0916L5.13318 21.55C5.18334 21.5246 5.25335 21.4899 5.33933 21.437C5.42532 21.3862 5.48319 21.3609 5.5102 21.3609H12.0545C12.0788 21.3609 12.1355 21.3422 12.2248 21.3058C12.3108 21.2683 12.3687 21.2253 12.3946 21.1724L17.2473 15.9813C17.2974 15.9322 17.3233 15.8424 17.3233 15.7172C17.3233 15.4675 17.2214 15.2923 17.0224 15.1903L0.282696 9.73736C0.157024 9.71035 0.0897788 9.642 0.075999 9.52901C0.0627704 9.41767 0.0550537 9.32121 0.0550537 9.2479V9.0649C0.0550537 8.98773 0.0809597 8.9271 0.131118 8.87695L1.44847 7.59818C1.47272 7.54802 1.52949 7.49731 1.61713 7.44826C1.70312 7.3992 1.77312 7.37329 1.82438 7.37329H25.2214L30.9372 1.3179C31.3391 0.890726 31.8473 0.564972 32.464 0.340085C33.0797 0.112994 33.6706 0 34.2516 0C34.6264 0 34.9747 0.0837812 35.285 0.244729C35.5992 0.407882 35.8186 0.714896 35.9454 1.16467V1.46617V1.76712C35.9454 2.245 35.8682 2.77139 35.7188 3.34849C35.5684 3.92504 35.3065 4.37702 34.929 4.70167L28.7611 10.6088C28.684 10.6589 28.6426 10.7427 28.6288 10.8541C28.6167 10.966 28.609 11.0486 28.609 11.0971V33.4419C28.609 33.4921 28.5941 33.6293 28.5715 33.8542C28.5451 34.0807 28.5351 34.2191 28.5351 34.2693C28.5351 34.3194 28.5142 34.3773 28.4778 34.4379C28.4425 34.5008 28.3984 34.546 28.3461 34.5713L27.1423 35.8131C26.9653 35.9399 26.8281 36.0005 26.7272 36.0005C26.4775 36.0005 26.3034 35.8661 26.2031 35.5872L20.787 19.1109C20.7606 18.9864 20.6988 18.8723 20.5996 18.773C20.4927 18.6694 20.3797 18.6165 20.2551 18.6165Z" fill="#3E80FE"/>
</g>
<defs>
<clipPath id="clip0">
<rect width="36" height="36" fill="white"/>
</clipPath>
</defs>
</svg>

<svg width="36" height="36" fill="none" xmlns="http://www.w3.org/2000/svg"><g clip-path="url(#clip0)"><path d="M20.255 18.616h-.036c-.05.053-.127.078-.228.078l-5.303 4.966-.15 7.071-1.618 1.62c-.05.05-.149.073-.302.073-.199 0-.344-.06-.43-.188a1.566 1.566 0 01-.206-.412l-.98-3.912a.349.349 0 00-.188-.264.602.602 0 00-.263-.074.723.723 0 00-.603.283 5.73 5.73 0 01-.414.466c-.425.354-.951.527-1.581.527-.575 0-.865-.274-.865-.827 0-.275.044-.55.133-.827.088-.275.22-.513.395-.715l.64-.714c0-.026.012-.05.036-.076.027-.025.04-.051.04-.078.074-.075.112-.15.112-.226 0-.098-.052-.194-.152-.281a.782.782 0 00-.3-.17l-4.023-.98c-.277-.098-.416-.311-.416-.638v-.038c0-.025.015-.085.038-.188l1.542-1.542c.05-.025.12-.06.206-.113a.479.479 0 01.171-.076h6.545a.665.665 0 00.17-.055c.086-.038.144-.08.17-.134l4.852-5.19c.05-.05.076-.14.076-.265 0-.25-.102-.425-.3-.527L.282 9.737C.157 9.71.09 9.642.076 9.53a2.53 2.53 0 01-.02-.281v-.183c0-.077.025-.138.075-.188l1.317-1.279c.025-.05.081-.1.17-.15a.465.465 0 01.206-.075h23.397l5.716-6.055c.402-.427.91-.753 1.527-.978A5.131 5.131 0 0134.252 0c.374 0 .723.084 1.033.245.314.163.534.47.66.92v.602c0 .478-.077 1.004-.226 1.581-.15.577-.413 1.029-.79 1.354l-6.168 5.907c-.077.05-.118.134-.132.245-.012.112-.02.195-.02.243v22.345c0 .05-.015.187-.038.412a4.768 4.768 0 00-.036.415.34.34 0 01-.057.169.31.31 0 01-.132.133l-1.204 1.242c-.177.127-.314.188-.415.188-.25 0-.424-.135-.524-.414l-5.416-16.476a.67.67 0 00-.187-.338.487.487 0 00-.345-.157z" fill="#3E80FE"/></g><defs><clipPath id="clip0"><path fill="#fff" d="M0 0h36v36H0z"/></clipPath></defs></svg>
